!!! OTL: Berkowitz269
!!! Chapter: 1
!!! Section: II
!!! Page: 63
!!! Mode: 
!!! Encoder: DJB
**kern
*staff1
*I"Piano
=1-
*clefC3
*k[b-e-a-d-]
*f:
*M2/4
8f\L
8c\J
8r
8f\
=2
8g\L
8c\J
8r
8g\
=3
8a-\L
16g\L
16a-\JJ
16b-\LL
16a-\
16g\
16f\JJ
=4
8f\L
8en\J
8r
8c\
=5
4cc\
4cc\
=6
8.dd-\L
16cc\Jk
16b-\LL
16a-\
16g\
16f\JJ
=7
8e-\L
16g\L
16f\JJ
16e-\LL
16d-\
16c\
16B-\JJ
=8
2A-/
=9
!!linebreak:original
8f\L
8c\J
8r
8f\
=10
8g\L
8c\J
8r
8g\
=11
8a-\L
16g\L
16a-\JJ
16b-\LL
16a-\
16g\
16f\JJ
=12
8f\L
8en\J
8r
8c\
=13
4cc\
4cc\
=14
8.dd-\L
16cc\Jk
16b-\LL
16a-\
16g\
16f\JJ
=15
8e-\L
16g\L
16f\JJ
16e-\LL
16d-\
16c\
16B-\JJ
=16
2A-/
=17
!!linebreak:original
8a-\L
8e-\J
8r
8a-\
=18
8b-\L
8e-\J
8r
8b-\
=19
8cc\L
16dd-\L
16cc\JJ
16b-\LL
16a-\
16g\
16f\JJ
=20
4a-\
4g\
=21
8f\L
8c\J
8r
8f\
=22
8g\L
8c\J
8r
8cc\
=23
16b-\LL
16a-\
16g\
16f\JJ
8c\L
8en\J
=24
2f\
=25
8a-\L
8e-\J
8r
8a-\
=26
!!linebreak:original
8b-\L
8e-\J
8r
8b-\
=27
8cc\L
16dd-\L
16cc\JJ
16b-\LL
16a-\
16g\
16f\JJ
=28
4a-\
4g\
=29
8f\L
8c\J
8r
8f\
=30
8g\L
8c\J
8r
8cc\
=31
16b-\LL
16a-\
16g\
16f\JJ
8c\L
8en\J
=32
2f\
==
*-
